X:1
T:That Beautiful Land
T:That Beautiful Land
T:James Monroe Hagan
T:Mrs. F. A. F. Wood  White, 1889
T:Public Domain Courtesy of the Cyber Hymnal™
T:Public Domain Courtesy of the Cyber Hymnal™
C:James Monroe Hagan
Z:Public Domain
Z:Courtesy of the Cyber Hymnal™
%%score ( 1 2 ) ( 3 4 )
L:1/8
Q:1/4=120
M:3/4
K:E
V:1 treble 
V:2 treble 
V:3 bass 
V:4 bass 
V:1
 E[EF] | [EG]2 [E^^F]2 [EG]2 | E4 [EG][FA] | [GB]2 [^^F^A]2 [GB]2 | [EG]4 [GB][GB] | %5
w: 1.~I have|heard of a|land On a|far a- way|strand, In the|
w: 2.~There are|ev- er- green|trees That bend|low in the|breeze, And their|
w: 3.~There’s a|home in that|land, At the|Fa- ther’s right|hand; There are|
 [Ac]2 [ce]2 [Ac]2 | [GB]2 [EG]2 E2 | [DF]4 E[EF] | [EG]2 [E^^F]2 [EG]2 | E4 [EG][FA] | %10
w: Bi- ble the|sto- ry is|told, Where no|cares ev- er|come, Nei- ther|
w: fruit- age is|bright- er than|gold; There are|harps for our|hands, In that|
w: man- sions whose|joys are un-|told; There the|ran- somed will|sing Round the|
 [GB]2 [^^F^A]2 [GB]2 | [EG]4 [GB]2 | [Ac]2 [ce]2 [Ac]2 | [GB] [EG]3 [DF]2 | E4 || %15
w: dark- ness nor|gloom, And|no- thing shall|ev- er grow|old.|
w: fair- est of|lands, And|no- thing shall|ev- er grow|old.|
w: throne of their|king, And|no- thing shall|ev- er grow|old.|
"^Refrain" [GB][GB] | [Ac]2 [Ac]2 [Ac]2 | [ce]4 [Bd][Ac] | [GB]3 [Ac] [GB]2 | [EG]4 [EG][EG] | %20
w: |||||
w: In that|beau- ti- ful|land, On the|far- a- way|strand, There a-|
w: |||||
 [EG]2 [DF]2 [DF]2 | [DB]2 [Fd]2 [Ec]2 | [DB]4 [AB][AB] | [Ge]2 [Ge]2 [Ge]2 | [Ge]4 [GB]2 | %25
w: |||||
w: waits us a|robe and a|crown; In that|ci- ty, we’re|told, The|
w: |||||
 [Ac]2 [Ac]2 [Ac]2 | [GB]4 [EG][FA] | [GB]2 [GB]2 [Ec]2 | [EB] [EG]3 [DF]2 | E4 |] %30
w: |||||
w: streets are pure|gold, And the|sun- light shall|nev- er go|down.|
w: |||||
V:2
 E x | x6 | E4 x2 | x6 | x6 | x6 | x4 E2 | x4 E x | x6 | E4 x2 | x6 | x6 | x6 | x6 | E4 || x2 | %16
 x6 | x6 | x6 | x6 | x6 | x6 | x6 | x6 | x6 | x6 | x6 | x6 | x6 | E4 |] %30
V:3
 [E,G,][E,A,] | [E,B,]2 [E,^A,]2 [E,B,]2 | [E,G,]4 [E,B,][E,B,] | [E,E]2 [E,E]2 [E,E]2 | %4
 [E,B,]4 [E,E][E,E] | [A,E]2 [A,E]2 [A,E]2 | [E,E]2 [E,B,]2 [E,G,]2 | [B,,B,]4 [E,G,][E,A,] | %8
 [E,B,]2 [E,^A,]2 [E,B,]2 | [E,G,]4 [E,B,][E,B,] | [E,E]2 [E,E]2 [E,E]2 | [E,B,]4 [E,E]2 | %12
 [A,E]2 [A,E]2 [A,E]2 | [B,E] B,3 [B,,A,]2 | [E,G,]4 || [E,E][E,E] | [A,E]2 [A,E]2 [A,E]2 | %17
 [A,E]4 [A,E][A,E] | [E,E]3 [E,E] [E,E]2 | [E,B,]4 [E,B,][E,B,] | [F,B,]2 [F,B,]2 [F,B,]2 | %21
 [F,B,]2 [F,B,]2 [F,^A,]2 | [B,,B,]4 [D,B,][D,B,] | [E,B,]2 [E,B,]2 [E,B,]2 | [E,B,]4 [E,E]2 | %25
 [A,E]2 [A,E]2 [A,E]2 | [E,E]4 [E,B,][E,B,] | [E,E]2 [E,B,]2 [A,,A,]2 | [B,,G,] [B,,G,]3 [B,,A,]2 | %29
 [E,G,]4 |] %30
V:4
 x2 | x6 | x6 | x6 | x6 | x6 | x6 | x6 | x6 | x6 | x6 | x6 | x6 | x B,3 x2 | x4 || x2 | x6 | x6 | %18
 x6 | x6 | x6 | x6 | x6 | x6 | x6 | x6 | x6 | x6 | x6 | x4 |] %30

